!!!COM: Mozart, Wolfgang Amadeus
!!!OPR: Quartet in A Major
!!!OTL:
!!!OMV: 4
!!!SCT: K 464
!!!SCA: Chronologisch-thematisches Verzeichnis sämtlicher Tonwerke Wolfgang Amade Mozarts (L. von Köchel; 1862, 2/1905, 3/1937, 1947)
!!!YOR: Breitkopf & Härtel Edition
!!!EED: Frances Bennion
!!!ENC: Frances Bennion
!!!CDT: 1756/1/27/-1791/12/5/
!!!OCY: Österreich
!!!YEC: Copyright (c) 1994, 2000 Center for Computer Assisted Research in the Humanities
!!!YEM: Rights to all derivative editions reserved.
!!!YEM: Refer to licensing agreement for further details.
!!!YEN: United States of America
**kern	**kern	**kern	**kern
*k[f#c#g#]	*k[f#c#g#]	*k[f#c#g#]	*k[f#c#g#]
*A:	*A:	*A:	*A:
*clefG	*clefG	*clefF	*clefC
*M2/2	*M2/2	*M2/2	*M2/2
*tb16	*tb16	*tb16	*tb16
=1	=1	=1	=1
2ee	1r	1r	1r
4dd#	.	.	.
4dd	.	.	.
=2	=2	=2	=2
4cc#	4r	1r	1r
2r	4a	.	.
.	4cc#	.	.
4ee#	4b	.	.
=3	=3	=3	=3
4ff#	4a#	1r	1r
4.ff#	4f#	.	.
.	4g#	.	.
8gg	.	.	.
8ee	4a#	.	.
8ff#	.	.	.
=4	=4	=4	=4
4dd	4b	4r	4r
2.r	4.dd	4.b	4B
.	.	.	4c#
.	8ee	8cc#	.
.	8cc#	8a	4d
.	8dd	8b	.
=5	=5	=5	=5
2dd	4b	4g#	4e
.	2.r	2.r	2.r
4cc#	.	.	.
4cc	.	.	.
=6	=6	=6	=6
4b	4r	1r	1r
2r	4g#	.	.
.	4b	.	.
4dd#	4a	.	.
=7	=7	=7	=7
4ee	4g#	1r	1r
4.ee	4e	.	.
.	4f#	.	.
8ff#	.	.	.
8dd	4g#	.	.
8ee	.	.	.
=8	=8	=8	=8
4cc#	4a	4r	4r
2.r	2.r	4.E	4.C#
.	.	8F#	8D
.	.	8D	8BB
.	.	8E	8C#
=9	=9	=9	=9
4r	4r	4C#	4AA
4.cc#	4.e	2.r	2.r
8dd	8f#	.	.
8b	8d	.	.
8cc#	8e	.	.
=10	=10	=10	=10
4a	4c#	4r	4r
2.r	2.r	4.c#	4.E
.	.	8d	8F#
.	.	8B	8D
.	.	8c#	8E
=11	=11	=11	=11
4r	4r	4A	4C#
4.ee	4.cc#	2.r	2.r
8ff#	8dd	.	.
8dd	8b	.	.
8ee	8cc#	.	.
=12	=12	=12	=12
4cc#	4a	4r	4r
2.r	2.r	4.e	4.c#
.	.	8f#	8d
.	.	8d	8B
.	.	8e	8c#
=13	=13	=13	=13
4r	4r	4c#	4A
4.aa	4a	2.r	2.r
.	4b	.	.
8bb	.	.	.
8gg#	4cc#	.	.
8aa	.	.	.
=14	=14	=14	=14
4ff#	4dd	4r	1r
4.ff#	4.dd	4f#	.
.	.	4g#	.
8gg	8ee	.	.
8ee	8cc#	4a#	.
8ff#	8dd	.	.
=15	=15	=15	=15
4dd	4b	4b	4r
4.dd	4.b	4g#	4E
.	.	[2e	4G#
8ee	8cc#	.	.
8cc#	8a	.	4A
8dd	8b	.	.
=16	=16	=16	=16
4b	8g#	8e]	4E
.	8a	8f#	.
2.r	8g#	8e	2.r
.	8f#	8d	.
.	8e	8c#	.
.	8d	8B	.
.	8c#	8A	.
.	8B	8G#	.
=17	=17	=17	=17
2ee	4c#	4A	1r
.	2.r	2.r	.
4dd#	.	.	.
4dd	.	.	.
=18	=18	=18	=18
4cc#	2e	2c#	1r
2r	.	.	.
.	4d#	4c	.
4ee#	4d	4B	.
=19	=19	=19	=19
4ff#	4c#	4A#	4r
4.ff#	4a#	4c#	4FF#
.	4b	[2f#	4GG#
8gg	.	.	.
8ee	4cc#	.	4AA#
8ff#	.	.	.
=20	=20	=20	=20
4dd	8dd	8f#]	4BB
.	8ee	8g	.
2.r	8cc#	8e	4C#
.	8dd	8f#	.
.	8b	8d	4D
.	8cc#	8e	.
.	8a	8c#	4D#
.	8b	8d	.
=21	=21	=21	=21
2dd	4g#	4B	4E
.	2.r	2.r	2.r
4cc#	.	.	.
4cc	.	.	.
=22	=22	=22	=22
4b	2d	2B	1r
2r	.	.	.
.	4c#	4A#	.
4dd#	4c	4A	.
=23	=23	=23	=23
4ee	4B	4G#	4r
4.ee	4g#	4B	4EE
.	4a	[2e	4FF#
8ff#	.	.	.
8dd	4b	.	4GG#
8ee	.	.	.
=24	=24	=24	=24
4cc#	8cc#	8e]	4AA
.	8dd	8f#	.
2.r	8b	8d	4BB
.	8cc#	8e	.
.	8a	8c#	2C#
.	8b	8d	.
.	8g#	8B	.
.	8a	8c#	.
=25	=25	=25	=25
4r	4f#	4A	4D
4.dd	4g#	2B	4BB
.	4e	.	4C#
8ee	.	.	.
8cc#	[4a	4A	4D
8dd	.	.	.
=26	=26	=26	=26
4b	8a]	4e	2E
.	8b	.	.
4.ee	8g#	2.r	.
.	8a	.	.
.	4f#	.	2B
8ff#	.	.	.
8dd	[4b	.	.
8ee	.	.	.
=27	=27	=27	=27
4cc#	8b]	1r	2F#
.	8cc#	.	.
4.ff#	8a	.	.
.	8b	.	.
.	4.g	.	4BB
8gg	.	.	.
[4ee	.	.	4C#
.	8a	.	.
=28	=28	=28	=28
8ee]	4.f#	2.r	4D
8ff#	.	.	.
4.dd	.	.	4BB
.	8g#	.	.
.	[2e	.	4C#
8ee	.	.	.
8cc#	.	[4A	4AA
8dd	.	.	.
=29	=29	=29	=29
4b	4e]	8A]	4EE
.	.	8B	.
2.r	2.r	8G#	4.E
.	.	8A	.
.	.	4F#	.
.	.	.	8F#
.	.	[4B	8D
.	.	.	8E
=30	=30	=30	=30
1r	1r	8B]	4C#
.	.	8c#	.
.	.	8A	4.F#
.	.	8B	.
.	.	4G#	.
.	.	.	8G#
.	.	[4c#	8E
.	.	.	8F#
=31	=31	=31	=31
1r	2.r	8c#]	4.D
.	.	8d	.
.	.	4.B	.
.	.	.	8E
.	.	.	4.C#
.	.	8c#	.
.	[4ee	[4A	.
.	.	.	8D
=32	=32	=32	=32
4r	8ee]	4A]	2BB
.	8ff#	.	.
4.bb	8dd	4G#	.
.	8ee	.	.
.	4cc#	4e	4C#
8ccc#	.	.	.
8aa	[4ff#	[4B	4D#
8bb	.	.	.
=33	=33	=33	=33
4gg#	8ff#]	4B]	4E
.	8gg#	.	.
4.ccc#	8ee	2f#	4AA#
.	8ff#	.	.
.	4.dd#	.	2BB
8ddd#	.	.	.
[4bb	.	4g#	.
.	8ee	.	.
=34	=34	=34	=34
8bb]	4.cc#	4e#	2BB
8ccc#	.	.	.
4.aa	.	4f#	.
.	8dd#	.	.
.	4.b	4d#	2BB
8bb	.	.	.
[4gg#	.	4e	.
.	8cc#	.	.
=35	=35	=35	=35
8gg#]	4.a	4c#	2BB
8aa	.	.	.
4.ff#	.	4d#	.
.	8b	.	.
.	4g#	4e	2BB
8gg#	.	.	.
8ee	4a#	4c#	.
8ff#	.	.	.
=36	=36	=36	=36
4dd#	4b	4B	4BB
4.aa	2r	2.r	4r
.	.	.	2C
8gg	.	.	.
8ff#	[4a	.	.
8ee	.	.	.
=37	=37	=37	=37
4dd#	8a]	2.r	2BB
.	8g	.	.
4.aa	8f#	.	.
.	8e	.	.
.	4d#	.	2C
8gg	.	.	.
8ff#	4r	[4a	.
8ee	.	.	.
=38	=38	=38	=38
4dd#	4r	8a]	4BB
.	.	8g	.
4.aa	2ff#	8f#	4r
.	.	8e	.
.	.	4d#	4B
8gg#	.	.	.
8aa	4ee	4e	4c
8aa#	.	.	.
=39	=39	=39	=39
4bb	4dd#	4f#	4B
2.r	4.B	4.B	4.BB
.	8A#	8A#	8AA#
.	8B	8B	8BB
.	8A	8A	8AA
=40	=40	=40	=40
2b	4G#	4G#	4GG#
.	2.r	2.r	2.r
4a#	.	.	.
4a	.	.	.
=41	=41	=41	=41
4g#	1r	2e	8EE
.	.	.	8EE
2.r	.	.	8EE
.	.	.	8EE
.	.	4d#	8EE
.	.	.	8EE
.	.	4d	8EE
.	.	.	8EE
=42	=42	=42	=42
1r	2ee	2c#	8EE
.	.	.	8EE
.	.	.	8EE
.	.	.	8EE
.	4dd#	2B	8EE
.	.	.	8EE
.	4dd	.	8EE
.	.	.	8EE
=43	=43	=43	=43
2aa	2cc#	4A	8EE
.	.	.	8EE
.	.	4c#	8EE
.	.	.	8EE
4gg#	[2b	[2e	8EE
.	.	.	8EE
4gg	.	.	8EE
.	.	.	8EE
=44	=44	=44	=44
4ff#	1b_	4e]	8EE
.	.	.	8EE
4.bb	.	8d#	8EE
.	.	8c#	8EE
.	.	2d#	8EE
8ccc#	.	.	8EE
8aa	.	.	8EE
8bb	.	.	8EE
=45	=45	=45	=45
4gg#	2b]	4e	8EE
.	.	.	8E
2.r	.	2.r	8E
.	.	.	8E
.	4a#	.	8E
.	.	.	8E
.	4a	.	8E
.	.	.	8E
=46	=46	=46	=46
1r	4g#	2e	8E
.	.	.	8E
.	2.r	.	8E
.	.	.	8E
.	.	4d#	8E
.	.	.	8E
.	.	4d	8E
.	.	.	8E
=47	=47	=47	=47
1r	2ee	4c#	8E
.	.	.	8E
.	.	4c	8E
.	.	.	8E
.	4dd#	4B	8E
.	.	.	8E
.	4dd	4G#	8E
.	.	.	8E
=48	=48	=48	=48
2aa	4cc#	4A	8E
.	.	.	8E
.	4cc	4d#	8E
.	.	.	8E
4gg#	4b	4e	8E
.	.	.	8E
4gg	[4ee	4A#	8E
.	.	.	8E
=49	=49	=49	=49
4ff#	4ee]	4B	8E
.	.	.	8E
4.bb	8dd#	4A	8E
.	8cc#	.	8E
.	2dd#	4G#	8E
8ccc#	.	.	8E
8aa	.	4F#	8E
8bb	.	.	8E
=50	=50	=50	=50
4gg#	8ee	4E	4E
.	8ee	.	.
4.aa	8ee	4.cc#	2.r
.	8ee	.	.
.	8ee	.	.
8bb	8ee	8dd	.
8gg#	8ee	8b	.
8aa	8ee	8cc#	.
=51	=51	=51	=51
4ff#	8ee	4a	1r
.	8ee	.	.
4.gg#	8ee	4.b	.
.	8ee	.	.
.	8ee	.	.
8aa	8ee	8cc#	.
8ff#	8ee	8a	.
8gg#	8ee	8b	.
=52	=52	=52	=52
4ee	8ee	4g#	1r
.	8ee	.	.
4.ccc#	8ee	4.a	.
.	8ee	.	.
.	8ee	.	.
8ddd	8ee	8b	.
8bb	8ee	8g#	.
8ccc#	8ee	8a	.
=53	=53	=53	=53
4aa	8ee	4f#	1r
.	8ee	.	.
4.bb	8ee	4.g#	.
.	8ee	.	.
.	8ee	.	.
8ccc#	8ee	8a	.
8aa	8ee	8f#	.
8bb	8ee	8g#	.
=54	=54	=54	=54
4gg#	8ee	4e	1r
.	8b	.	.
4bb	8gg#	2.r	.
.	8b	.	.
4aa	8ff#	.	.
.	8b	.	.
4gg#	8ee	.	.
.	8b	.	.
=55	=55	=55	=55
4ff#	4dd#	8r	4r
.	.	8b	.
2ff#	2dd#	8b	4.A
.	.	8b	.
.	.	8b	.
.	.	8b	8B
4gg#	4ee	8b	8G#
.	.	8b	8A
=56	=56	=56	=56
4aa	4ff#	8b	4F#
.	.	8B	.
2f#	2d#	8B	4.A
.	.	8B	.
.	.	8B	.
.	.	8B	8B
4g#	4e	8B	8G#
.	.	8B	8A
=57	=57	=57	=57
4a	4f#	8B	4F#
.	.	8b	.
2ff#	2dd#	8b	4.A
.	.	8b	.
.	.	8b	.
.	.	8b	8B
4gg#	4ee	8b	8G#
.	.	8b	8A
=58	=58	=58	=58
4bb	2dd#	2.b	2F#
2aa	.	.	.
.	[2ee#	.	2G#
[4gg#	.	4dd	.
=59	=59	=59	=59
8gg#]	8ee#]	4cc#	4A
8ff#	8ff#	.	.
8ccc#	2.r	2.r	2.r
8aa	.	.	.
8gg#	.	.	.
8ff#	.	.	.
8aa	.	.	.
8ff#	.	.	.
=60	=60	=60	=60
8dd	1r	1r	1r
8cc#	.	.	.
8ff#	.	.	.
8cc#	.	.	.
8b	.	.	.
8a	.	.	.
8cc#	.	.	.
8a	.	.	.
=61	=61	=61	=61
8g#	1r	1r	1r
8f#	.	.	.
8e#	.	.	.
8f#	.	.	.
8g#	.	.	.
8f#	.	.	.
8a	.	.	.
8f#	.	.	.
=62	=62	=62	=62
2b	2d#	2A	2BB
2e	2e	2G#	2C#
=63	=63	=63	=63
2cc#	2e	1F#	2AA
2d#	2A	.	2BB
=64	=64	=64	=64
8r	8r	4E	4GG#
8b	8b	.	.
8bb	8gg#	4r	4r
8bb	8gg#	.	.
8r	8r	4g#	4c#
8ee	8cc#	.	.
8gg#	8ee	4r	4r
8gg#	8ee	.	.
=65	=65	=65	=65
8r	8r	4f#	4A
8ee	8cc#	.	.
8ccc#	8ee	4r	4r
8ccc#	8ee	.	.
8r	8r	4f#	4B
8f#	8A	.	.
8dd#	8a	4r	4r
8dd#	8a	.	.
=66	=66	=66	=66
4ee	4g#	4e	8E
.	.	.	8E
2r	2.r	2.r	8E
.	.	.	8E
.	.	.	8E
.	.	.	8E
8g#	.	.	8E
8b	.	.	8E
=67	=67	=67	=67
8ee	2.r	2.r	8E
8b	.	.	8E
8g#	.	.	8E
8b	.	.	8E
4ee	.	.	8E
.	.	.	8E
4bb	4b	4g#	8E
.	.	.	8E
=68	=68	=68	=68
2aa	2dd#	2f#	8E
.	.	.	8E
.	.	.	8E
.	.	.	8E
4gg#	4ee	4e	8E
.	.	.	8E
8g#	4r	4r	8E
8b	.	.	8E
=69	=69	=69	=69
8ee	2.r	2.r	8E
8b	.	.	8E
8g#	.	.	8E
8b	.	.	8E
4ee	.	.	8E
.	.	.	8E
4bb	4b	4g#	8E
.	.	.	8E
=70	=70	=70	=70
2dd#	2a	2f#	8E
.	.	.	8E
.	.	.	8E
.	.	.	8E
4ee	4g#	4e	8E
.	.	.	8EE
4r	8G#	4r	8EE
.	8B	.	8EE
=71	=71	=71	=71
4r	8e	2.r	8EE
.	8B	.	8EE
4bb	8G#	.	8EE
.	8B	.	8EE
4bb	4e	.	8EE
.	.	.	8EE
4bb	4b	4g#	8EE
.	.	.	8EE
=72	=72	=72	=72
4.bb	2a	2f#	8EE
.	.	.	8EE
.	.	.	8EE
16ccc#	.	.	8EE
16bb	.	.	.
4eee	4g#	4e	8EE
.	.	.	8EE
4r	8G#	4r	8EE
.	8B	.	8EE
=73	=73	=73	=73
4r	8e	2.r	8EE
.	8B	.	8EE
4bb	8G#	.	8EE
.	8B	.	8EE
4bb	4e	.	8EE
.	.	.	8EE
4bb	4b	4G#	8EE
.	.	.	8EE
=74	=74	=74	=74
4.bb	2d#	2A	8EE
.	.	.	8EE
.	.	.	8EE
16aa	.	.	8EE
16ff#	.	.	.
4ee	4e	4G#	8EE
.	.	.	8EE
4b	4g#	4B	8EE
.	.	.	8EE
=75	=75	=75	=75
4.b	2d#	2A	8EE
.	.	.	8EE
.	.	.	8EE
16a	.	.	8EE
16f#	.	.	.
4e	4e	4G#	8EE
.	.	.	8EE
4g#	4e	4B	8EE
.	.	.	8EE
=76	=76	=76	=76
4.b	2A	2D#	8EE
.	.	.	8EE
.	.	.	8EE
16a	.	.	8EE
16f#	.	.	.
4e	4G#	4E	4EE
4b	4g#	4r	4r
=77	=77	=77	=77
4dd	4b	4r	4r
2r	2r	4B	4G#
.	.	4d	4B
4bb	4gg#	4r	4r
=78	=78	=78	=78
4ddd	4bb	2g#	2e
2.r	2.r	.	.
.	.	4a	4f#
.	.	4a#	4g
=79	=79	=79	=79
2ff#	2dd	4b	4g#
.	.	2.r	2.r
4ee	4cc#	.	.
4dd#	4cc	.	.
=80	=80	=80	=80
4dd	4b	2e	2E
2.r	2.r	.	.
.	.	4d#	4F#
.	.	4d	4G#
=81	=81	=81	=81
2ee	1r	4c#	4A
.	.	2.r	2.r
4dd#	.	.	.
4dd	.	.	.
=82	=82	=82	=82
4cc#	2.e	2A	2A
4cc	.	.	.
4.b	.	2B	4G#
.	4e#	.	4G
16cc#	.	.	.
16b	.	.	.
=83	=83	=83	=83
4a#	4f#	4c#	8F#
.	.	.	8F#
4dd	4b	4f#	8D
.	.	.	8BB
4cc#	4a#	4f#	8F#
.	.	.	8F#
4ddd	4bb	4f#	8D
.	.	.	8BB
=84	=84	=84	=84
4ccc#	4aa#	4f#	4F#
2.r	2.r	2.r	2.r
=85	=85	=85	=85
1r	1r	1r	8GG
.	.	.	8GG
.	.	.	8GG
.	.	.	8GG
.	.	.	8GG
.	.	.	8GG
.	.	.	8GG
.	.	.	8GG
=86	=86	=86	=86
1r	1r	2G	8GG
.	.	.	8GG
.	.	.	8GG
.	.	.	8GG
.	.	4F#	8GG
.	.	.	8GG
.	.	4F	8GG
.	.	.	8GG
=87	=87	=87	=87
1r	2g	2E	8GG
.	.	.	8GG
.	.	.	8GG
.	.	.	8GG
.	4f#	2D	8GG
.	.	.	8GG
.	4f	.	8GG
.	.	.	8GG
=88	=88	=88	=88
2cc	2e	4C	8GG
.	.	.	8GG
.	.	4E	8GG
.	.	.	8GG
4b	[2d	[2G	8GG
.	.	.	8GG
4b-	.	.	8GG
.	.	.	8GG
=89	=89	=89	=89
4a	1d]	4G]	8GG
.	.	.	8GG
4.dd	.	8F#	8GG
.	.	8E	8GG
.	.	2F#	8GG
8ee	.	.	8GG
8cc	.	.	8GG
8dd	.	.	8GG
=90	=90	=90	=90
4b	2d	4G	8GG
.	.	.	8G
2.r	.	2.r	8G
.	.	.	8G
.	4c#	.	8G
.	.	.	8G
.	4c	.	8G
.	.	.	8G
=91	=91	=91	=91
1r	4B	2g	8G
.	.	.	8G
.	2.r	.	8G
.	.	.	8G
.	.	4f#	8G
.	.	.	8G
.	.	4f	8G
.	.	.	8G
=92	=92	=92	=92
1r	2gg	4e	8G
.	.	.	8G
.	.	4e-	8G
.	.	.	8G
.	4ff#	4d	8G
.	.	.	8G
.	4ff	4B	8G
.	.	.	8G
=93	=93	=93	=93
2ccc	4ee	4c	8G
.	.	.	8G
.	4ee-	4f#	8G
.	.	.	8G
4bb	4dd	4g	8G
.	.	.	8G
4bb-	[4gg	4c#	8G
.	.	.	8G
=94	=94	=94	=94
4aa	4gg]	4d	8G
.	.	.	8G
4.ddd	8ff#	4c	8G
.	8ee	.	8G
.	2ff#	4B	8G
8eee	.	.	8G
8ccc	.	4A	8G
8ddd	.	.	8G
=95	=95	=95	=95
4bb	8gg	4G	2GG
.	8dd	.	.
2.r	8dd	2.r	.
.	8dd	.	.
.	8dd	.	4FF#
.	8cc	.	.
.	8b	.	4FF
.	8a	.	.
=96	=96	=96	=96
8r	4g#	2e	4EE
8ee	.	.	.
8ee	2.r	.	2.r
8ee	.	.	.
8ff#	.	4d#	.
8ee	.	.	.
8gg#	.	4d	.
8ee	.	.	.
=97	=97	=97	=97
4aa	8r	4c	2AA
.	8ee	.	.
2.r	8ee	2.r	.
.	8ee	.	.
.	8ee	.	4GG#
.	8dd	.	.
.	8cc	.	4GG
.	8b	.	.
=98	=98	=98	=98
8r	4a#	2f#	4FF#
8ff#	.	.	.
8ff#	2.r	.	2.r
8ff#	.	.	.
8gg#	.	4e#	.
8ff#	.	.	.
8aa#	.	4e	.
8ff#	.	.	.
=99	=99	=99	=99
4bb	1r	8d	2B
.	.	8f#	.
2.r	.	8f#	.
.	.	8f#	.
.	.	8f#	4A#
.	.	8e	.
.	.	8d	4A
.	.	8c#	.
=100	=100	=100	=100
1r	2gg#	8B#	4G#
.	.	8g#	.
.	.	8g#	4E
.	.	8g#	.
.	4ff##	8a#	4D#
.	.	8g#	.
.	4ff#	8b#	4G#
.	.	8g#	.
=101	=101	=101	=101
2ccc#	8ee#	4cc#	4C#
.	8cc#	.	.
.	8cc#	4A	2.r
.	8cc#	.	.
4bb#	8dd#	4G#	.
.	8cc#	.	.
4bb	8ee#	4c#	.
.	8cc#	.	.
=102	=102	=102	=102
4aa#	2ff#	8F#	4r
.	.	8f#	.
2.r	.	8f#	4D#
.	.	8f#	.
.	4ee#	8g#	4C#
.	.	8f#	.
.	4ee	8a#	4F#
.	.	8f#	.
=103	=103	=103	=103
2bb	8dd#	4b	4BB
.	8b	.	.
.	8b	4G#	2.r
.	8b	.	.
4aa#	8cc#	4F#	.
.	8b	.	.
4aa	8dd#	4B	.
.	8b	.	.
=104	=104	=104	=104
4gg#	2ee	8E	8r
.	.	8G#	8E
2.r	.	8G#	8E
.	.	8G#	8E
.	4dd#	8A	8F#
.	.	8G#	8E
.	4dd	8B	8G#
.	.	8G#	8E
=105	=105	=105	=105
2aa	4cc#	4c#	4A
.	4cc	4d#	2.r
4gg#	4b	2e	.
4gg	4a#	.	.
=106	=106	=106	=106
4ff#	4b	4d#	2B
4ee#	4g#	4d	.
4ee	4g	4c#	4A#
4dd#	4f#	4c	4A
=107	=107	=107	=107
8dd	8e#	4B	4G#
8dd	8e#	.	.
8cc#	8f#	4c#	4A
8cc#	8f#	.	.
8b	8g#	4d	4B
8b	8g#	.	.
8a	8f#	4d#	4B#
8a	8f#	.	.
=108	=108	=108	=108
8g#	8e#	2e#	2c#
8gg#	8ee#	.	.
8gg#	8ee#	.	.
8gg#	8ee#	.	.
8gg#	8ff#	4d#	4B#
8gg#	8ff#	.	.
8gg#	8ee#	4d	4B
8gg#	8ee#	.	.
=109	=109	=109	=109
2ccc#	2aa	8c#	8A
.	.	8C#	8AA
.	.	8c#	8A
.	.	8c#	8A
4bb	4gg#	8d	8B
.	.	8d	8B
4aa	4ff#	8d#	8B#
.	.	8d#	8B#
=110	=110	=110	=110
8gg#	8ee#	2e#	2c#
8g#	8e#	.	.
8gg#	8ee#	.	.
8gg#	8ee#	.	.
8gg#	8ff#	4d#	4B#
8gg#	8ff#	.	.
8gg#	8ee#	4d	4B
8gg#	8ee#	.	.
=111	=111	=111	=111
2ccc#	2aa	8c#	8A
.	.	8C#	8AA
.	.	8c#	8A
.	.	8c#	8A
4bb	4gg#	8d	8B
.	.	8d	8B
4aa	4ff#	8d#	8B#
.	.	8d#	8B#
=112	=112	=112	=112
4gg#	4ee#	4e#	8c#
.	.	.	8c#
4aa	4ff#	4c#	8A
.	.	.	8F#
4gg#	4ee#	4cc#	8c#
.	.	.	8c#
4aa	4ff#	4c#	8A
.	.	.	8F#
=113	=113	=113	=113
4gg#	4ee#	4cc#	4c#
2.r	2.r	2.r	2.r
=114	=114	=114	=114
1f#	[1d	1A	1D
=115	=115	=115	=115
1g	1d_	1G	1BB
=116	=116	=116	=116
2f#	1d]	2A	2AA
2e	.	2B	2GG#
=117	=117	=117	=117
[1a	1c#	1E	1GG
=118	=118	=118	=118
2a]	2d#	1B	2FF#
2g#	2d	.	2EE
=119	=119	=119	=119
2g	2c#	2E	2AA#
2f#	[2d	[2D	2BB
=120	=120	=120	=120
2b	2d]	2D]	2GG
2e	2d	2B	2GG#
=121	=121	=121	=121
1e	1c#	[1A	1AA
=122	=122	=122	=122
1ff#	8d	1A]	1D
.	8e	.	.
.	8f#	.	.
.	8g	.	.
.	8a	.	.
.	8b	.	.
.	8cc#	.	.
.	8dd	.	.
=123	=123	=123	=123
1gg	8cc#	1G	1BB
.	8dd	.	.
.	8cc#	.	.
.	8dd	.	.
.	8cc#	.	.
.	8dd	.	.
.	8ee	.	.
.	8dd	.	.
=124	=124	=124	=124
2ff#	8cc#	[1A	2AA
.	8dd	.	.
.	8ee	.	.
.	8dd	.	.
2ee	8cc#	.	2GG
.	8dd	.	.
.	8b	.	.
.	8cc#	.	.
=125	=125	=125	=125
1aa	8dd#	4A]	1FF#
.	8cc	.	.
.	8b	4B	.
.	8a	.	.
.	8g	4c	.
.	8f#	.	.
.	8e	4B	.
.	8d#	.	.
=126	=126	=126	=126
1gg	8e	1B	1EE
.	8f#	.	.
.	8g	.	.
.	8a	.	.
.	8b	.	.
.	8cc#	.	.
.	8dd#	.	.
.	8ee	.	.
=127	=127	=127	=127
1aa	8dd#	1A	1C
.	8ee	.	.
.	8dd#	.	.
.	8ee	.	.
.	8dd#	.	.
.	8ee	.	.
.	8ff#	.	.
.	8ee	.	.
=128	=128	=128	=128
2gg	8dd#	[1B	2BB
.	8ee	.	.
.	8ff#	.	.
.	8ee	.	.
2ff#	8dd#	.	2AA
.	8ee	.	.
.	8cc#	.	.
.	8dd#	.	.
=129	=129	=129	=129
1bb	8ee#	4B]	1GG#
.	8dd	.	.
.	8cc#	4c#	.
.	8b	.	.
.	8a	4d	.
.	8g#	.	.
.	8f#	4c#	.
.	8e#	.	.
=130	=130	=130	=130
1aa#	8e	4r	1FF#
.	8f#	.	.
.	8g#	4c#	.
.	8a#	.	.
.	8b	4g	.
.	8cc#	.	.
.	8dd#	4f#	.
.	8ee	.	.
=131	=131	=131	=131
1aa	8dd#	4r	1BB
.	8cc	.	.
.	8b	4f#	.
.	8a	.	.
.	8g	4c	.
.	8f#	.	.
.	8e	4B	.
.	8d#	.	.
=132	=132	=132	=132
1gg#	8d	4r	1EE
.	8e	.	.
.	8f#	4B	.
.	8g#	.	.
.	8a	4f	.
.	8b	.	.
.	8cc#	4e	.
.	8dd	.	.
=133	=133	=133	=133
1gg	8cc#	4r	1AA
.	8b	.	.
.	8a	4e	.
.	8g	.	.
.	8f	4B-	.
.	8e	.	.
.	8d	4A	.
.	8c#	.	.
=134	=134	=134	=134
2ff#	8d	2A	[1D
.	8f#	.	.
.	8a	.	.
.	8dd	.	.
2ee	8c#	2A#	.
.	8e	.	.
.	8g	.	.
.	8cc#	.	.
=135	=135	=135	=135
2dd	8B	2B	2D]
.	8d	.	.
.	8f#	.	.
.	8b	.	.
2cc#	8A	2f#	2D#
.	8c#	.	.
.	8f#	.	.
.	8a	.	.
=136	=136	=136	=136
4b	4e	8g#	4E
.	.	8b	.
4r	4r	8g#	2.r
.	.	8e	.
4b	4g#	8d	.
.	.	8e	.
4r	4r	8d	.
.	.	8B	.
=137	=137	=137	=137
4cc	4a	8c	1r
.	.	8e	.
4r	4r	8a	.
.	.	8e	.
4cc	4a	8c	.
.	.	8e	.
4r	4r	8c	.
.	.	8A	.
=138	=138	=138	=138
4dd	4b	4e	8G#
.	.	.	8B
4r	4r	4r	8G#
.	.	.	8E
4bb	4gg#	4e	8D
.	.	.	8E
4r	4r	4r	8D
.	.	.	8BB
=139	=139	=139	=139
4ccc	4aa	4e	8C
.	.	.	8E
4r	4r	4r	8A
.	.	.	8E
4cc	4a	4e	8C
.	.	.	8E
4r	4r	4r	8C
.	.	.	8AA
=140	=140	=140	=140
4b	4g#	4e	4EE
4r	4B	4G#	4E
8g#	2r	2r	2r
8e	.	.	.
8a	.	.	.
8f#	.	.	.
=141	=141	=141	=141
4b	4r	4r	4r
4r	4B	4G#	4E
8b	2r	2r	2r
8g#	.	.	.
8cc#	.	.	.
8a	.	.	.
=142	=142	=142	=142
4dd	4r	4r	4r
4r	4B	4G#	4E
8dd	2r	2r	2r
8b	.	.	.
8gg#	.	.	.
8gg#	.	.	.
=143	=143	=143	=143
8gg#	4b	4g#	4e
8ee	.	.	.
8bb	4r	4r	4r
8bb	.	.	.
8bb	4b	4g#	4e
8gg#	.	.	.
8ddd	4r	4r	4r
8ddd	.	.	.
=144	=144	=144	=144
4ddd	4b	4g#	4e
2.r	2.r	2.r	2.r
=145	=145	=145	=145
2ee	1r	1r	1r
4dd#	.	.	.
4dd	.	.	.
=146	=146	=146	=146
4cc#	4r	1r	1r
2r	4a	.	.
.	4cc#	.	.
4ee#	4b	.	.
=147	=147	=147	=147
4ff#	4a#	8r	1r
.	.	8f#	.
4.ff#	4f#	8f#	.
.	.	8f#	.
.	4g#	8f#	.
8gg	.	8e	.
8ee	4a#	8d	.
8ff#	.	8c#	.
=148	=148	=148	=148
4dd	4b	4B	8r
.	.	.	8BB
2.r	2d	2B	8BB
.	.	.	8BB
.	.	.	8C#
.	.	.	8BB
.	4c#	4A	8D
.	.	.	8BB
=149	=149	=149	=149
2dd	4B	4G#	4E
.	2.r	2.r	2.r
4cc#	.	.	.
4cc	.	.	.
=150	=150	=150	=150
4b	4r	1r	1r
2r	4g#	.	.
.	4b	.	.
4dd#	4a	.	.
=151	=151	=151	=151
4ee	4g#	8r	1r
.	.	8e	.
4.ee	4e	8e	.
.	.	8e	.
.	4f#	8e	.
8ff#	.	8d	.
8dd	4g#	8c#	.
8ee	.	8B	.
=152	=152	=152	=152
4cc#	4a	4A	8r
.	.	.	8AA
2.r	2c#	2A	8AA
.	.	.	8AA
.	.	.	8BB
.	.	.	8AA
.	4B	4G#	8C#
.	.	.	8AA
=153	=153	=153	=153
8r	4A	4F#	4D
8a	.	.	.
8a	2a	2f#	2.r
8a	.	.	.
8b	.	.	.
8a	.	.	.
8cc#	4g	4e	.
8a	.	.	.
=154	=154	=154	=154
4dd	4f#	4d	8r
.	.	.	8BB
2.r	2d	2B	8BB
.	.	.	8BB
.	.	.	8C#
.	.	.	8BB
.	4c#	4A	8D
.	.	.	8BB
=155	=155	=155	=155
8r	4B	4G#	4E
8b	.	.	.
8b	2b	2g#	2.r
8b	.	.	.
8cc#	.	.	.
8b	.	.	.
8dd#	4a	4f#	.
8b	.	.	.
=156	=156	=156	=156
4ee	4g#	4e	8r
.	.	.	8C#
2.r	2e	2c#	8C#
.	.	.	8C#
.	.	.	8D
.	.	.	8C#
.	4d	4B	8E
.	.	.	8C#
=157	=157	=157	=157
4r	8c#	4A	4F#
.	8a	.	.
4.aa	8a	4f#	2.r
.	8a	.	.
.	8b	4e	.
8bb	8a	.	.
8gg	8cc#	4a	.
8aa	8a	.	.
=158	=158	=158	=158
4ff#	4dd	8d	4r
.	.	8f#	.
4.ff#	2b	8f#	4d
.	.	8f#	.
.	.	8g#	4c#
8gg	.	8f#	.
8ee	4cc#	8a#	4f#
8ff#	.	8f#	.
=159	=159	=159	=159
4dd	4dd	4b	8B
.	.	.	8E
4.dd	4.b	4g#	8E
.	.	.	8E
.	.	[2e	8G#
8ee	8cc#	.	8E
8cc#	8a	.	8A
8dd	8b	.	8E
=160	=160	=160	=160
4b	8g#	8e]	4e
.	8a	8f#	.
2.r	8g#	8e	2.r
.	8f#	8d	.
.	8e	8c#	.
.	8d	8B	.
.	8c#	8A	.
.	8B	8G#	.
=161	=161	=161	=161
2ee	4c#	4A	1r
.	2.r	2.r	.
4dd#	.	.	.
4dd	.	.	.
=162	=162	=162	=162
4cc#	2a	2e	2c#
2r	.	.	.
.	4g#	4d#	4B#
4ee#	4g	4d	4B
=163	=163	=163	=163
4ff#	4f#	2c#	4A#
4.ff#	4a#	.	4FF#
.	4b	[2f#	4GG#
8gg	.	.	.
8ee	4cc#	.	4AA#
8ff#	.	.	.
=164	=164	=164	=164
4dd	8dd	8f#]	4BB
.	8ee	8g	.
2.r	8cc#	8e	4C#
.	8dd	8f#	.
.	8b	8d	4D
.	8cc#	8e	.
.	8a	8c#	4D#
.	8b	8d	.
=165	=165	=165	=165
2dd	4g#	4B	4E
.	2.r	2.r	2.r
4cc#	.	.	.
4cc	.	.	.
=166	=166	=166	=166
4b	2g#	2d	2B
2r	.	.	.
.	4f#	4c#	4A#
4dd#	4f	4c	4A
=167	=167	=167	=167
4ee	4e	2B	4G#
4.ee	4g#	.	4EE
.	4a	[2e	4FF#
8ff#	.	.	.
8dd	4b	.	4GG#
8ee	.	.	.
=168	=168	=168	=168
4cc#	8cc#	8e]	4AA
.	8dd	8f#	.
2.r	8b	8d	4BB
.	8cc#	8e	.
.	8a	8c#	2C#
.	8b	8d	.
.	8g#	8B	.
.	8a	8c#	.
=169	=169	=169	=169
4r	4f#	4A	4D
4.dd	4g#	2B	4BB
.	4e	.	4C#
8ee	.	.	.
8cc#	[4a	4A	4D
8dd	.	.	.
=170	=170	=170	=170
4b	8a]	4e	2E
.	8b	.	.
4.ee	8g#	2.r	.
.	8a	.	.
.	4f#	.	2B
8ff#	.	.	.
8dd	[4b	.	.
8ee	.	.	.
=171	=171	=171	=171
4cc#	8b]	1r	2F#
.	8cc#	.	.
4.ff#	8a	.	.
.	8b	.	.
.	4.g	.	4BB
8gg	.	.	.
[4ee	.	.	4C#
.	8a	.	.
=172	=172	=172	=172
8ee]	4.f#	2.r	4D
8ff#	.	.	.
4.dd	.	.	4BB
.	8g#	.	.
.	[2e	.	4C#
8ee	.	.	.
8cc#	.	[4A	4AA
8dd	.	.	.
=173	=173	=173	=173
4b	4e]	8A]	4EE
.	.	8B	.
2.r	2.r	8G#	4.E
.	.	8A	.
.	.	4F#	.
.	.	.	8F#
.	.	[4B	8D
.	.	.	8E
=174	=174	=174	=174
1r	1r	8B]	4C#
.	.	8c#	.
.	.	8A	4.F#
.	.	8B	.
.	.	4G#	.
.	.	.	8G#
.	.	[4c#	8E
.	.	.	8F#
=175	=175	=175	=175
1r	2.r	8c#]	4.D
.	.	8d	.
.	.	4.B	.
.	.	.	8E
.	.	.	4.C#
.	.	8c#	.
.	[4ee	[4A	.
.	.	.	8D
=176	=176	=176	=176
4r	8ee]	4A]	2BB
.	8ff#	.	.
4.bb	8dd	4G#	.
.	8ee	.	.
.	4cc#	4e	4C#
8ccc#	.	.	.
8aa	[4ff#	[4B	4D#
8bb	.	.	.
=177	=177	=177	=177
4.gg#	8ff#]	4B]	2E
.	8dd#	.	.
.	4.ee	4g#	.
8aa	.	.	.
4.ff#	.	4a#	2E
.	8cc#	.	.
.	[4dd	4b	.
8gg#	.	.	.
=178	=178	=178	=178
4.ee	8dd]	4g#	2E
.	8b	.	.
.	4.cc#	4a	.
8ff#	.	.	.
4.dd	.	4f#	2E
.	8a	.	.
.	[4b	4g#	.
8ee	.	.	.
=179	=179	=179	=179
4.cc#	8b]	4e	[1EE
.	8g#	.	.
.	4.a	4c#	.
8ee	.	.	.
4.aa	.	4d#	.
.	8f#	.	.
.	8b	4f#	.
8dd#	8a	.	.
=180	=180	=180	=180
8ee	4g#	4B	4EE]
8b	.	.	.
4.dd	2r	2.r	4r
.	.	.	2FF
8cc	.	.	.
8b	[4d	.	.
8a	.	.	.
=181	=181	=181	=181
4g#	8d]	2.r	2EE
.	8c	.	.
4.dd	8B	.	.
.	8A	.	.
.	4G#	.	2FF
8cc	.	.	.
8b	4r	[4d	.
8a	.	.	.
=182	=182	=182	=182
4g#	4r	8d]	4EE
.	.	8c	.
4.dd	2b	8B	4r
.	.	8A	.
.	.	4G#	4E
8cc#	.	.	.
8dd	4a	4A	4F
8dd#	.	.	.
=183	=183	=183	=183
4ee	4g#	4B	4E
2.r	4.e	4.E	4.EE
.	8d#	8D#	8DD#
.	8e	8E	8EE
.	8d	8D	8DD
=184	=184	=184	=184
2e	4c#	4C#	4CC#
.	2.r	2.r	2.r
4d#	.	.	.
4d	.	.	.
=185	=185	=185	=185
4c#	1r	2A	8AA
.	.	.	8AA
2.r	.	.	8AA
.	.	.	8AA
.	.	4G#	8AA
.	.	.	8AA
.	.	4G	8AA
.	.	.	8AA
=186	=186	=186	=186
1r	2a	2F#	8AA
.	.	.	8AA
.	.	.	8AA
.	.	.	8AA
.	4g#	2E	8AA
.	.	.	8AA
.	4g	.	8AA
.	.	.	8AA
=187	=187	=187	=187
2dd	2f#	4D	8AA
.	.	.	8AA
.	.	4F#	8AA
.	.	.	8AA
4cc#	[2e	[2A	8AA
.	.	.	8AA
4cc	.	.	8AA
.	.	.	8AA
=188	=188	=188	=188
4b	1e]	4A]	8AA
.	.	.	8AA
4.ee	.	8G#	8AA
.	.	8F#	8AA
.	.	2G#	8AA
8ff#	.	.	8AA
8dd	.	.	8AA
8ee	.	.	8AA
=189	=189	=189	=189
4cc#	2ee	4A	8AA
.	.	.	8A
2.r	.	2.r	8A
.	.	.	8A
.	4dd#	.	8A
.	.	.	8A
.	4dd	.	8A
.	.	.	8A
=190	=190	=190	=190
1r	4cc#	2a	8A
.	.	.	8A
.	2.r	.	8A
.	.	.	8A
.	.	4g#	8A
.	.	.	8A
.	.	4g	8A
.	.	.	8A
=191	=191	=191	=191
1r	2aa	4f#	8A
.	.	.	8A
.	.	4f	8A
.	.	.	8A
.	4gg#	4e	8A
.	.	.	8A
.	4gg	4c#	8A
.	.	.	8A
=192	=192	=192	=192
2ddd	4ff#	4d	8A
.	.	.	8A
.	4ff	4g#	8A
.	.	.	8A
4ccc#	4ee	4a	8A
.	.	.	8A
4ccc	[4aa	4d#	8A
.	.	.	8A
=193	=193	=193	=193
4bb	4aa]	4e	8A
.	.	.	8A
4.eee	8gg#	4d	8A
.	8ff#	.	8A
.	2gg#	4c#	8A
8ddd#	.	.	8A
8eee	.	4B	8A
8ddd	.	.	8A
=194	=194	=194	=194
8ccc#	4aa	4A	4A
8aa	.	.	.
8aa	4.dd	4.f#	2.r
8aa	.	.	.
8aa	.	.	.
8aa	8ee	8g	.
8aa	8cc#	8e	.
8aa	8dd	8f#	.
=195	=195	=195	=195
8aa	4b	4d	1r
8aa	.	.	.
8aa	4.cc#	4.e	.
8aa	.	.	.
8aa	.	.	.
8aa	8dd	8f#	.
8aa	8b	8d	.
8aa	8cc#	8e	.
=196	=196	=196	=196
8aa	4a	4c#	1r
8a	.	.	.
8aa	4.ff#	4.d	.
8aa	.	.	.
8aa	.	.	.
8aa	8gg	8e	.
8aa	8ee	8c#	.
8aa	8ff#	8d	.
=197	=197	=197	=197
8aa	4dd	4B	1r
8aa	.	.	.
8aa	4.ee	4.c#	.
8aa	.	.	.
8aa	.	.	.
8aa	8ff#	8d	.
8aa	8dd	8B	.
8aa	8ee	8c#	.
=198	=198	=198	=198
4aa	8cc#	4A	1r
.	8ee	.	.
4eee	8ccc#	2.r	.
.	8ee	.	.
4ddd	8bb	.	.
.	8ee	.	.
4ccc#	8aa	.	.
.	8ee	.	.
=199	=199	=199	=199
4bb	4gg#	8r	4r
.	.	8ee	.
2bb	2gg#	8ee	4.d
.	.	8ee	.
.	.	8ee	.
.	.	8ee	8e
4ccc#	4aa	8ee	8c#
.	.	8ee	8d
=200	=200	=200	=200
4ddd	4bb	8ee	4B
.	.	8e	.
2b	2g#	8e	4.d
.	.	8e	.
.	.	8e	.
.	.	8e	8e
4cc#	4a	8e	8c#
.	.	8e	8d
=201	=201	=201	=201
4dd	4b	8e	4B
.	.	8ee	.
2bb	2gg#	8ee	4.d
.	.	8ee	.
.	.	8ee	.
.	.	8ee	8e
4ccc#	4aa	8ee	8c#
.	.	8ee	8d
=202	=202	=202	=202
4eee	2.ee	2g#	2B
2ddd	.	.	.
.	.	[2a#	2c#
[4ccc#	4gg	.	.
=203	=203	=203	=203
8ccc#]	4ff#	8a#]	4d
8bb	.	8b	.
8fff#	2.r	2.r	2.r
8ddd	.	.	.
8ccc#	.	.	.
8bb	.	.	.
8ddd	.	.	.
8bb	.	.	.
=204	=204	=204	=204
8gg	1r	1r	1r
8ff#	.	.	.
8bb	.	.	.
8ff#	.	.	.
8ee	.	.	.
8dd	.	.	.
8ff#	.	.	.
8dd	.	.	.
=205	=205	=205	=205
8cc#	1r	1r	1r
8b	.	.	.
8a#	.	.	.
8b	.	.	.
8cc#	.	.	.
8b	.	.	.
8dd	.	.	.
8b	.	.	.
=206	=206	=206	=206
2ee	2g#	2d	2E
2a	[2a	2c#	2F#
=207	=207	=207	=207
2ff#	2a]	1B	2D
2g#	2d	.	2E
=208	=208	=208	=208
[1a#	2g	2e	2.FF#
.	[2f#	4d	.
.	.	4c#	4EE
=209	=209	=209	=209
8a#]	4f#]	4d	4DD
8b	.	.	.
8ff#	2.r	2.r	2.r
8dd	.	.	.
8cc#	.	.	.
8b	.	.	.
8dd	.	.	.
8b	.	.	.
=210	=210	=210	=210
8g	1r	1r	1r
8f#	.	.	.
8b	.	.	.
8f#	.	.	.
8e	.	.	.
8d	.	.	.
8f#	.	.	.
8d	.	.	.
=211	=211	=211	=211
8c#	1r	1r	1r
8B	.	.	.
8A#	.	.	.
8B	.	.	.
8c#	.	.	.
8B	.	.	.
8d	.	.	.
8B	.	.	.
=212	=212	=212	=212
2e	2G#	2D	2EE
2A	[2A	2C#	2FF#
=213	=213	=213	=213
2f#	2A]	2D	2DD
2G#	2d	2B	2EE
=214	=214	=214	=214
8r	8r	4A	4C#
8e	8c#	.	.
8ee	8a	4r	4r
8ee	8a	.	.
8r	8r	4c#	4F#
8cc#	8a	.	.
8aa	8cc#	4r	4r
8aa	8cc#	.	.
=215	=215	=215	=215
8r	8r	4B	4BB
8ff#	8dd	.	.
8ddd	8ff#	4r	4r
8ddd	8ff#	.	.
8r	8r	4b	4E
8b	8d	.	.
8gg#	8dd	4r	4r
8gg#	8dd	.	.
=216	=216	=216	=216
4aa	4cc#	4a	8AA
.	.	.	8A
2r	2.r	2.r	8A
.	.	.	8A
.	.	.	8A
.	.	.	8A
8cc#	.	.	8A
8ee	.	.	8A
=217	=217	=217	=217
8aa	2.r	2.r	8A
8ee	.	.	8A
8cc#	.	.	8A
8ee	.	.	8A
4aa	.	.	8A
.	.	.	8A
4eee	4ee	4cc#	8A
.	.	.	8A
=218	=218	=218	=218
2ddd	2gg#	2b	8A
.	.	.	8A
.	.	.	8A
.	.	.	8A
4ccc#	4aa	4a	8A
.	.	.	8A
8cc#	4r	4r	8A
8ee	.	.	8A
=219	=219	=219	=219
8aa	2.r	2.r	8A
8ee	.	.	8A
8cc#	.	.	8A
8ee	.	.	8A
4aa	.	.	8A
.	.	.	8A
4eee	4ee	4cc#	8A
.	.	.	8A
=220	=220	=220	=220
2gg#	2dd	2b	8A
.	.	.	8A
.	.	.	8A
.	.	.	8A
4aa	4cc#	4a	8A
.	.	.	8AA
4r	8c#	4r	8AA
.	8e	.	8AA
=221	=221	=221	=221
4r	8a	2.r	8AA
.	8e	.	8AA
4ee	8c#	.	8AA
.	8e	.	8AA
4ee	4a	.	8AA
.	.	.	8AA
4ee	4ee	4cc#	8AA
.	.	.	8AA
=222	=222	=222	=222
4.gg#	2dd	2b	8AA
.	.	.	8AA
.	.	.	8AA
16ff#	.	.	8AA
16gg#	.	.	.
4aa	4cc#	4a	8AA
.	.	.	8AA
4r	8c#	4r	8AA
.	8e	.	8AA
=223	=223	=223	=223
4r	8a	2.r	8AA
.	8e	.	8AA
4ee	8c#	.	8AA
.	8e	.	8AA
4eee	4a	.	8AA
.	.	.	8AA
4eee	4ee	4c#	8AA
.	.	.	8AA
=224	=224	=224	=224
4.eee	2g#	2d	8AA
.	.	.	8AA
.	.	.	8AA
16ddd	.	.	8AA
16bb	.	.	.
4aa	4a	4c#	8AA
.	.	.	8AA
4ee	4cc#	4e	8AA
.	.	.	8AA
=225	=225	=225	=225
4.ee	2g#	2d	8AA
.	.	.	8AA
.	.	.	8AA
16dd	.	.	8AA
16b	.	.	.
4a	4a	4c#	8AA
.	.	.	8AA
4c#	4A	4E	8AA
.	.	.	8AA
=226	=226	=226	=226
4.e	2G#	2D	8AA
.	.	.	8AA
.	.	.	8AA
16d	.	.	8AA
16B	.	.	.
4A	4A	4C#	4AA
4cc#	4r	4A	4r
=227	=227	=227	=227
4ee	4r	4c#	4r
2r	4c#	2r	4AA
.	4e	.	4C#
4ccc#	4r	4a	4r
=228	=228	=228	=228
4eee	2cc#	4cc#	2A
2.r	.	2.r	.
.	4dd	.	4B
.	4dd#	.	4B#
=229a	=229a	=229a	=229a
2ee	4ee	1r	4c#
.	2.r	.	4r
4dd#	.	.	2r
4dd	.	.	.
=229b	=229b	=229b	=229b
2ee	4ee	2c#	4c#
.	4r	.	4r
4dd#	2r	4c	2r
4dd	.	4B	.
=230	=230	=230	=230
4cc#	2a	4A	2F#
2r	.	2r	.
.	4g#	.	4E#
4cc#	4g	4A#	4E
=231	=231	=231	=231
8dd	2f#	8B	4D
8ee	.	8c#	.
8ff#	.	8d	2r
8ee	.	8c#	.
4dd	4r	4B	.
4cc#	4f#	4A	4D#
=232	=232	=232	=232
4b	8g#	4G#	8E
.	8a	.	8F#
2.r	8b	2.r	8G#
.	8a	.	8F#
.	4g#	.	4E
.	4f#	.	4D
=233	=233	=233	=233
2cc#	8e#	4G#	1C#
.	8c#	.	.
.	8c#	4E#	.
.	8c#	.	.
4b#	8d#	4F#	.
.	8c#	.	.
4b	8e#	4G#	.
.	8c#	.	.
=234	=234	=234	=234
4a	8f#	4A	4FF#
.	8a	.	.
4dd	8f#	2.r	2r
.	8d	.	.
4cc#	8g	.	.
.	8e	.	.
4cc	8a	.	4D#
.	8f#	.	.
=235	=235	=235	=235
4b	8a	4r	4E
.	8e	.	.
4ee	8g#	4e	2r
.	8e	.	.
4dd#	8f#	4e	.
.	8a	.	.
4dd	8g#	4e	4E
.	8b	.	.
=236	=236	=236	=236
8cc#	4a	2e	4AA
8ee	.	.	.
8ee	2.r	.	2.r
8ee	.	.	.
8ff#	.	4d#	.
8ee	.	.	.
8gg#	.	4d	.
8ee	.	.	.
=237	=237	=237	=237
4aa	2ee	8c#	1r
.	.	8e	.
2.r	.	8e	.
.	.	8e	.
.	4dd#	8f#	.
.	.	8e	.
.	4dd	8g#	.
.	.	8e	.
=238	=238	=238	=238
1r	8cc#	2a	2F#
.	8a	.	.
.	8a	.	.
.	8a	.	.
.	8b	4g#	4E#
.	8a	.	.
.	8cc#	4g	4E
.	8a	.	.
=239	=239	=239	=239
1r	8dd	8f#	8D
.	8ee	8e	8BB
.	8ff#	8d	8BB
.	8ee	8c#	8BB
.	4dd	4B	8C#
.	.	.	8BB
.	4cc#	4A	8D
.	.	.	8BB
=240	=240	=240	=240
8r	4b	4G#	4E
8gg#	.	.	.
8gg#	2.r	2.r	2.r
8gg#	.	.	.
8aa	.	.	.
8gg#	.	.	.
8bb	.	.	.
8gg#	.	.	.
=241	=241	=241	=241
2ccc#	2cc#	2e#	8r
.	.	.	8C#
.	.	.	8C#
.	.	.	8C#
4bb#	4b#	4f#	8D#
.	.	.	8C#
4bb	4b	4g#	8E#
.	.	.	8C#
=242	=242	=242	=242
4aa	4a	8a	4F#
.	.	8g	.
4ddd	4dd	8f#	2r
.	.	8d	.
4ccc#	4cc#	8g	.
.	.	8e	.
4ccc	4cc	8a	4D#
.	.	8f#	.
=243	=243	=243	=243
4bb	4b	2g#	8E
.	.	.	8E
4eee	4ee	.	8E
.	.	.	8E
4ddd#	4dd#	4a	8F#
.	.	.	8E
4ddd	4dd	4b	8G#
.	.	.	8E
=244	=244	=244	=244
8ccc#	8cc#	8e	2A
8a	8A	8c#	.
8a	8A	8c#	.
8a	8A	8c#	.
8b	8B	4d	4G#
8a	8A	.	.
8cc#	8c#	4e	4G
8a	8A	.	.
=245	=245	=245	=245
8dd	8d	8f#	4F#
8ff#	8f#	8d	.
8dd	8d	8f#	4B
8b	8B	8d	.
8cc#	8c#	4e	4A#
8b	8B	.	.
8dd#	8d#	4f#	4A
8b	8B	.	.
=246	=246	=246	=246
8ee	8e	8g#	4G#
8bb	8b	8e	.
8gg#	8g#	8b	4e
8ee	8e	8g#	.
8ff#	8f#	4a	4d#
8ee	8e	.	.
8gg#	8g#	4b	4d
8ee	8e	.	.
=247	=247	=247	=247
8aa	8a	4cc#	4c#
8ee	8e	.	.
8aa	8a	4e	4c#
8ee	8ee	.	.
8bb	8gg#	4d	4B
8ee	8ee	.	.
8ccc#	8aa	4c#	4A
8ee	8ee	.	.
=248	=248	=248	=248
4ddd	4bb	4e	4G#
2.r	2.r	2.r	2.r
=249	=249	=249	=249
2ee	2.r	2.r	2.r
4dd#	.	.	.
4dd	4b	4g#	4e#
=250	=250	=250	=250
4cc#	4a	4a	4f#
2.r	4r	4r	4r
.	4ff#	4a	4d
.	4r	4r	4r
=251	=251	=251	=251
8r	2.b	2a	1e
8eee	.	.	.
8eee	.	.	.
8eee	.	.	.
8eee	.	2g#	.
8ddd	.	.	.
8ccc#	8cc#	.	.
8bb	8dd	.	.
=252	=252	=252	=252
4aa	4cc#	4a	4A
2.r	2.r	2.r	2.r
=253	=253	=253	=253
2e	2.r	2.r	2.r
4d#	.	.	.
4d	4B	4G#	4E#
=254	=254	=254	=254
4c#	4A	4A	4F#
2.r	4r	4r	4r
.	4f#	4A	4D#
.	4r	4r	4r
=255	=255	=255	=255
8r	4B	4A	4E
8ee	.	.	.
8ee	4r	4r	4r
8ee	.	.	.
8ee	4e	4G#	4EE
8dd	.	.	.
8cc#	4r	4r	4r
8b	.	.	.
=256	=256	=256	=256
4a	4c#	4A	4AA
2.r	2.r	2.r	2.r
=257	=257	=257	=257
2ee	2cc#	8r	1r
.	.	8e	.
.	.	8e	.
.	.	8e	.
4dd#	4cc	8f#	.
.	.	8e	.
4dd	4b	8g#	.
.	.	8e	.
=258	=258	=258	=258
4cc#	4a	4a	1r
2.r	2.r	2.r	.
=259	=259	=259	=259
2cc#	2e	1r	8r
.	.	.	8EE
.	.	.	8EE
.	.	.	8EE
4cc	4d#	.	8FF#
.	.	.	8EE
4b	4d	.	8GG#
.	.	.	8EE
=260	=260	=260	=260
4a	4c#	1r	4AA
2.r	2.r	.	2.r
=261	=261	=261	=261
8r	2e	2c#	1E
8ee	.	.	.
8ee	.	.	.
8ee	.	.	.
8ff#	4d#	4c	.
8ee	.	.	.
8gg#	4d	4B	.
8ee	.	.	.
=262	=262	=262	=262
4aa	4c#	4A	4AA
2.r	2.r	2.r	2.r
==	==	==	==
*-	*-	*-	*-
!!!RWG1: This file contains only pitch and duration data.
!!!RWG2: Transposing instruments are not transposed.
!!!RWG3: Spines may have incompatible meters.
!!!RWG4: Durations of rests and tied notes may be interpreted.
!!!RWG: Key is interpreted using the Humdrum key tool.
!!!AFT: stage1
!!!END: 1997/04/15
!!format changes:
!!content changes:
!!public access: complete
!!!KEY: 1925216985
!!!EMD: Converted from MuseData to Humdrum Dec 16, 2000, by Andreas Kornstaedt using muse2kern.
